cmd/conneroh/_static/dist/svg/shrink.svg

<svg height="18" viewBox="0 0 18 18" width="18" xmlns="http://www.w3.org/2000/svg"><path d="m15 15 6 6m-6-6v4.802083m0-4.802083h4.802083m-10.802083 4.802083v-4.802083m0 0h-4.802083m4.802083 0-6 6m12-16.802083v4.802083m0 0h4.802083m-4.802083 0 6-6m-12 1.197917v4.802083m0 0h-4.802083m4.802083 0-6-6" fill="none" stroke="#fff" stroke-linecap="round" stroke-linejoin="round" stroke-width="2" transform="scale(.75)"/></svg>

<svg xmlns="http://www.w3.org/2000/svg" width="24" height="24" fill="none" stroke="white" stroke-linecap="round" stroke-linejoin="round" stroke-width="2">
    <path d="m15 15 6 6m-6-6v4.8m0-4.8h4.8M9 19.8V15m0 0H4.2M9 15l-6 6M15 4.2V9m0 0h4.8M15 9l6-6M9 4.2V9m0 0H4.2M9 9 3 3"/>
</svg>
